svg/u1f3d6.svg

<svg viewBox="0 0 128 128" xmlns="http://www.w3.org/2000/svg">
  <path d="M17.71,113.37c-3.88-2.29-9.05-6.55-8.9-13.71c0.13-6.08,8.73-15.75,30.78-19.45 c22.05-3.7,34.22-1.94,44.1-0.88c9.88,1.06,16.05,4.23,16.05,4.23l-9,18.17L17.71,113.37z" fill="#04C1EA"/>
  <path d="M56.82,96.76l-20.27,5.38l-16.24,7.17c0,0-2.02,4.26-1.01,5.38c1.01,1.12,15.91,9.64,42.33,9.74 c29.24,0.11,44.79-7.5,50.17-11.42s-10.64-26.43-10.64-26.43l-13.37-5.5l-15.19,1.47l-8.96,4.48L56.82,96.76z" fill="#F5C876"/>
  <path d="M70.01,94.93l22.65-1.2c0,0-2.96-5.68-4.05-8.23c-1.24-2.9-1.47-4.57-1.47-4.57s2.66-0.74,7.2,0.41 c4.54,1.15,20.68,6.33,24.63,16.31c3.44,8.7-7.24,15.43-7.24,15.43s-7.2-4.91-9.89-7.48c-4.21-4.02-6.49-7.39-6.49-7.39l-25.58,0.9 l-1.52-1.01L70.01,94.93z" fill="#F2A159"/>
  <path d="M21.33,98.55c-2.86,2.86,0.45,6.38,0.45,6.38s-6.49,1.46-6.27,5.26c0.11,1.9,2.69,4.14,3.81,4.48 c1.12,0.34,0.9-1.84,2.46-3.36c4.03-3.92,16.46-4.82,25.08-5.71s12.16-3.87,13.77-4.93c4.26-2.8,2.69-10.73,7.33-14.26 c7.46-5.68,24.52-4.9,24.4-5.53c-0.12-0.63-14.14-3.78-26.99,1.42c-8.59,3.48-8.43,10.75-14.47,12.77S25.92,93.96,21.33,98.55z" fill="#DCECF6"/>
  <path d="M33.39,101.25c-1.81,0.66-0.1,2.57,0.74,3.05c1.68,0.96,3.95,1.97,3.95,1.97s-4.77,3.62-3.45,5.51 c0.97,1.39,9.95-2.06,9.95-2.06c0.09,0,5.54,4.45,7.86,4.46c1.73,0.01,0.56-6.45,0.56-6.45s7.29-1.55,7.29-3.77 c0-1.73-3.62-1.23-3.62-1.23S35.2,100.59,33.39,101.25z" fill="#EE594A"/>
  <path d="M48.84,96.81c-1.89-0.17-5.37,3.74-5.37,3.74s-10.25-0.7-10.42,1.03s5.43,2.47,5.43,3.45 s-4.52,4.6-4.11,5.75c0.41,1.15,9.36-4.03,10.03-3.78s7.45,6.8,8.66,5.68c1.04-0.96-0.03-6.59-0.03-6.59s6.91-1.64,6.82-2.88 c-0.08-1.23-8.71-2.14-8.71-2.14S50.65,96.97,48.84,96.81z" fill="#F79228"/>
  <path d="M61.61,17.83l-4.73-0.34l4.82,35.26c0,0,4.83,39.73,5.16,42.11c0.42,3.04,1.17,4.66,3.85,4.25 c2.68-0.41,2.41-3.04,2.24-5.09c-0.17-2.05-4.46-39.33-4.46-39.33L61.61,17.83z" fill="#4EA4B0"/>
  <path d="M57.74,11.84c0,0-22.83,2.5-37.53,18.82C8.35,43.83,6.42,55.66,7.26,55.79 c1.41,0.22,5-0.98,8.92,0.65c3.92,1.63,6.2,5,7.51,5c1.31,0,6.09-3.26,12.84-2.28c6.74,0.98,11.31,5,12.73,5s7.07-4.24,15.77-4.68 c7.94-0.4,13.27,1.52,14.36,1.41c1.09-0.11,3.21-6.84,11.59-9.34c8.38-2.5,11.15-0.45,12.35-0.45c1.2,0,1.85-5.87,7.83-8.16 c5.98-2.28,8.27-1.31,9.57-1.52s-4.79-14.78-26.38-24.65C76.5,8.62,57.74,11.84,57.74,11.84z" fill="#EE5948"/>
  <path d="M58.79,13.49c0,0-14.86,4.45-25.2,20.66C25.13,47.41,25,57.21,25.54,57.75 c0.54,0.54,5.55-1.96,11.64-1.41c6.09,0.54,11.23,5.07,11.53,4.03c0.38-1.32,0.26-13.02,1.64-22.87 c2.57-18.43,8.57-22.44,8.57-22.44s8,5.36,14.07,20.49c3.81,9.49,5.7,19.24,6.49,20.48c0.35,0.55,3.64-4.49,10.48-6.71 c6.33-2.06,11.86-0.47,12.62-0.9c0.76-0.44-6.34-15.84-18.19-24.7C71.01,13.69,58.79,13.49,58.79,13.49z" fill="#FEFEFE"/>
  <path d="M57.44,3.91c-2.92,0.4-1.99,4.67-1.77,7.18c0.1,1.11,0.34,5.37,3.27,5.14 c2.44-0.19,2.1-3.44,1.88-5.83C60.61,8,60.51,3.49,57.44,3.91z" fill="#4EA4B0"/>
</svg>

<svg viewBox="0 0 128 128" xmlns="http://www.w3.org/2000/svg">
  <defs/>
  <path d="M17.71,113.37 C13.83,111.08 8.66,106.82 8.81,99.66 C8.94,93.58 17.54,83.91 39.59,80.21 C61.64,76.51 73.81,78.27 83.69,79.33 C93.57,80.39 99.74,83.56 99.74,83.56 L90.74,101.73 L17.71,113.37 Z" fill="#04C1EA"/>
  <path d="M56.82,96.76 L36.55,102.14 L20.31,109.31 C20.31,109.31 18.29,113.57 19.3,114.69 C20.31,115.81 35.21,124.33 61.63,124.43 C90.87,124.54 106.42,116.93 111.8,113.01 C117.18,109.09 101.16,86.58 101.16,86.58 L87.79,81.08 L72.6,82.55 L63.64,87.03 L56.82,96.76 Z" fill="#F5C876"/>
  <path d="M70.01,94.93 L92.66,93.73 C92.66,93.73 89.7,88.05 88.61,85.5 C87.37,82.6 87.14,80.93 87.14,80.93 C87.14,80.93 89.8,80.19 94.34,81.34 C98.88,82.49 115.02,87.67 118.97,97.65 C122.41,106.35 111.73,113.08 111.73,113.08 C111.73,113.08 104.53,108.17 101.84,105.6 C97.63,101.58 95.35,98.21 95.35,98.21 L69.77,99.11 L68.25,98.1 L70.01,94.93 Z" fill="#F2A159"/>
  <path d="M21.33,98.55 C18.47,101.41 21.78,104.93 21.78,104.93 C21.78,104.93 15.29,106.39 15.51,110.19 C15.62,112.09 18.2,114.33 19.32,114.67 C20.44,115.01 20.22,112.83 21.78,111.31 C25.81,107.39 38.24,106.49 46.86,105.6 C55.48,104.71 59.02,101.73 60.63,100.67 C64.89,97.87 63.32,89.94 67.96,86.41 C75.42,80.73 92.48,81.51 92.36,80.88 C92.24,80.25 78.22,77.1 65.37,82.3 C56.78,85.78 56.94,93.05 50.9,95.07 C44.86,97.09 25.92,93.96 21.33,98.55 Z" fill="#DCECF6"/>
  <path d="M33.39,101.25 C31.58,101.91 33.29,103.82 34.13,104.3 C35.81,105.26 38.08,106.27 38.08,106.27 C38.08,106.27 33.31,109.89 34.63,111.78 C35.6,113.17 44.58,109.72 44.58,109.72 C44.67,109.72 50.12,114.17 52.44,114.18 C54.17,114.19 53,107.73 53,107.73 C53,107.73 60.29,106.18 60.29,103.96 C60.29,102.23 56.67,102.73 56.67,102.73 C56.67,102.73 35.2,100.59 33.39,101.25 Z" fill="#EE594A"/>
  <path d="M48.84,96.81 C46.95,96.64 43.47,100.55 43.47,100.55 C43.47,100.55 33.22,99.85 33.05,101.58 C32.88,103.31 38.48,104.05 38.48,105.03 C38.48,106.01 33.96,109.63 34.37,110.78 C34.78,111.93 43.73,106.75 44.4,107 C45.07,107.25 51.85,113.8 53.06,112.68 C54.1,111.72 53.03,106.09 53.03,106.09 C53.03,106.09 59.94,104.45 59.85,103.21 C59.77,101.98 51.14,101.07 51.14,101.07 C51.14,101.07 50.65,96.97 48.84,96.81 Z" fill="#F79228"/>
  <path d="M61.61,17.83 L56.88,17.49 L61.7,52.75 C61.7,52.75 66.53,92.48 66.86,94.86 C67.28,97.9 68.03,99.52 70.71,99.11 C73.39,98.7 73.12,96.07 72.95,94.02 C72.78,91.97 68.49,54.69 68.49,54.69 L61.61,17.83 Z" fill="#4EA4B0"/>
  <path d="M57.74,11.84 C57.74,11.84 34.91,14.34 20.21,30.66 C8.35,43.83 6.42,55.66 7.26,55.79 C8.67,56.01 12.26,54.81 16.18,56.44 C20.1,58.07 22.38,61.44 23.69,61.44 C25,61.44 29.78,58.18 36.53,59.16 C43.27,60.14 47.84,64.16 49.26,64.16 C50.68,64.16 56.33,59.92 65.03,59.48 C72.97,59.08 78.3,61 79.39,60.89 C80.48,60.78 82.6,54.05 90.98,51.55 C99.36,49.05 102.13,51.1 103.33,51.1 C104.53,51.1 105.18,45.23 111.16,42.94 C117.14,40.66 119.43,41.63 120.73,41.42 C122.03,41.21 115.94,26.64 94.35,16.77 C76.5,8.62 57.74,11.84 57.74,11.84 Z" fill="#EE5948"/>
  <path d="M58.79,13.49 C58.79,13.49 43.93,17.94 33.59,34.15 C25.13,47.41 25,57.21 25.54,57.75 C26.08,58.29 31.09,55.79 37.18,56.34 C43.27,56.88 48.41,61.41 48.71,60.37 C49.09,59.05 48.97,47.35 50.35,37.5 C52.92,19.07 58.92,15.06 58.92,15.06 C58.92,15.06 66.92,20.42 72.99,35.55 C76.8,45.04 78.69,54.79 79.48,56.03 C79.83,56.58 83.12,51.54 89.96,49.32 C96.29,47.26 101.82,48.85 102.58,48.42 C103.34,47.98 96.24,32.58 84.39,23.72 C71.01,13.69 58.79,13.49 58.79,13.49 Z" fill="#FEFEFE"/>
  <path d="M57.44,3.91 C54.52,4.31 55.45,8.58 55.67,11.09 C55.77,12.2 56.01,16.46 58.94,16.23 C61.38,16.04 61.04,12.79 60.82,10.4 C60.61,8 60.51,3.49 57.44,3.91 Z" fill="#4EA4B0"/>
</svg>
